X: 1
T: Delijska R\ua\vcenica
C: Ivan \vSibilev
O: Bulgaria
B: Narodni Hora i R\ua\vcenici za Akordeon (D\uar\vzavno Izdatelstvo "Muzika", Sofija, 1976)
Z: John \vCambers <jc@trillian.mit.edu>
M: 7/16
L: 1/16
K: Dphr^F
|: "D"D2FG A2A | A2A2 TA2G | "Gm"A2BB A2G |1,3 "Cm"GAGF EDC :|2,4 "D"GA A2 A3 :|
|: "D"D2FG A2A | A2A2 TA2G | "Gm"A2BB A2G | "Cm"GAGF EDC \
|     C2DE E2E | D2E2  F2G |     A2GF EDC | "D"D2D2 D3 :|
|: "Cm"C2DE E2E | D2E2 F2G | A2GF EDC |1,3 "D"DEFG A2D :|2,4 "D"D2D2 D3 :|
|: "G"d2z2 d3 | "Cm"c4-c3 | "Gm"BcBA GFG | {A}B2B2 B3 \
|  "D"A2B2 c2d | c2B2 A2G | "Cm"GAGF EDC |1 "D"DEFG ABc :|2 "D"D2D2 D3 ||
|: "D"A2B2 c2d | c2B2 A2G | "Cm"GAGF EDC |1,3 "D"DEFG A2D :|2,4 "D"D2D2 D3 :|
|: "D"GAF2 GAG | FA,DE ~F2D | "Cm"GA,F2 EDC |1,3 "D"DEFG A2D :|2,4 "D"D2D2 D3 :|
%%sep 3 1 500
%%sep 1 1 500
